X: 38559
T: Still Tulips Yard, The
R: waltz
M: 3/4
K: Amajor
|:"A" E2 A ECE|F E2 CEG|{/G} A2 G EFG|"D" F2 E C2 D:|
|:"A" EA,A, ECC|A,B,C"D" D2 E|ECE/F/ ECA|1 "E" GEC/D/ ECB,:|2 "E" GEC/D/ ECE/G/||
|:"A" ABE A2 E|ABA GFE|"D" deB d2 A|1 "E" Bec B2 F:|2 "E" Bec BAF||

